X:1
T:Cosi dicendo
T:Tiburtio Massaino
T:Cosi dicendo
T:Seconda parte
C:Tiburtio Massaino
%%score [ 1 2 3 4 ]
L:1/8
Q:1/4=100
M:4/2
K:C
V:1 alto1 nm="Canto" snm="C"
V:2 alto nm="Alto" snm="A"
V:3 tenor nm="Tenore" snm="T"
V:4 bass nm="Basso" snm="B"
V:1
 z16 |[K:D][K:treble] d4 c2 d2 B4 A4 | z16 | z4 D4 D6 D2 | D2 D2 E4 D2 D2 D4 | z2 d4 B2 c2 B4 A2 | %6
w: |Co- si di- cen- do||et qual puo|gra- tia ha- ver- si Mag- gior|la man mi por- *|
 B4 z2 G2 A2 B2 =c4 | B16 | z4 z2 B2 B2 B2 dcBA | GFEF GABc d2 e4 ^d2 | e2 c2 d3 c BAGF EFGA | %11
w: se, la man mi por-|se|ond' io ch'ar- de- * * *||a, ch'ar- de- * * * * * * * * *|
 B4 B2 B2 c6 c2 | c4 A8 B4- | B4 B4 B8 | A8 G8- | G8 F8 | z4 B4 d6 d2 | d2 d2 B2 B2 A2 A2 A4 | %18
w: * a, La pre- si et|ver- go- gno-|* so a lei|mi spin-|* si,|Ma men- tre il|fin- to ben, il fin- to ben|
 A4 G2 G4 F4 E2 | F8 z2 ^D3 D D2 | E4 ^D4 z2 E2 E2 F2 | G2 A2 B4 E4 z4 | G4 G2 A2 B2 c2 d4- | %23
w: ver mi cre- de- *|a, Rup- pe- si il|son- no et io le|brac- cia a- per- si,|et io le brac- cia a- per-|
 d2 c2 B8 B4 | z2 B4 B2 A4 G2 F2 | E2 E4 E2 e3 dcB A2- | A2 A4 A2 G8- | G4 A4 B6 B2 | %28
w: * * * si,|Per Ma- donn' ab- bra-|ciar, Per Ma- donn' _ _ _ _|_ ab- bra- ciar|_ ma l'a- ria|
 B4 A4 z4 z2 d2 | dcBA GF E2 D2 E4 D2 | E8 z2 E2 E2 F2 | G2 A2 B4 E4 z4 | G4 G2 A2 B2 c2 d4- | %33
w: strin- si, ma|l'a- * * * * * * ria strin- *|si, et io le|brac- cia a- per- si,|et io le brac- cia a- per-|
 d2 c2 B8 B4 | z2 B4 B2 A4 G2 F2 | E2 E4 E2 e3 dcB A2- | A2 A4 A2 G8- | G4 A4 B6 B2 | %38
w: * * * si,|Per Ma- donn' ab- bra-|ciar, Per Ma- donn' _ _ _ _|_ ab- bra- ciar|_ ma l'a- ria|
 B4 A4 z4 z2 d2 | dcBA GF E2 D2 E4 D2 | E2 B2 B2 A2 B2 B2 z4 |[M:2/2] z8 |] %42
w: strin- si, ma|l'a- * * * * * * ria strin- *|si, ma l'a- ria strin- si.||
V:2
 z16 |[K:D][K:treble] z16 | B4 A2 B2 G4 F4 | B,4 B,8 B,4 | B,2 B,2 =C4 B,2 B,2 B,4 | %5
w: ||Co- si di- cen- do|et qual puo|gra- tia ha- ver- si Mag- gior|
 z8 z2 D2 E3 F | G2 F2 z4 z2 D2 E2 F2 | G4 F2 D2 E2 F2 G4 | F4 z2 B,2 D2 C2 FEDC | %9
w: la man mi|por- se, la man mi|por- se, la man mi por-|se ond' io ch'ar- de- * * *|
 B,4 B2 G2 F2 E2 F4 | G2 F2 F4 B,4 z2 E2 | F2 G2 F4 A4 z2 E2 | E4 C4 z4 D4 | D8 D4 F4- | F4 E4 E8 | %15
w: * a, ond' io ch'ar- de-|a, La pre- si ond'|io ch'ar- de- a, La|pre- si et|ver- go- gno-|* so a lei|
 D4 E8 ^D4 | E8 z8 | F4 G4 F4 F4- | F2 F2 E4 z4 z2 B,2 | D2 C2 C4 D2 B,3 B, B,2 | A,4 B,4 z4 B,4 | %21
w: mi spin- *|si,|Ma men- tre il fin-|* to ben ver|mi cre- de- a, Rup- pe- si il|son- no et|
 E,2 F,2 G,2 A,2 B,4 E,4 | z4 G,4 G,2 A,2 B,2 C2 | D4 G,4 z8 | z2 G4 F2 F3 E D4 | %25
w: io le brac- cia a- per- si,|et io le brac- cia a-|per- si,|Per Ma- donn' _ _|
 B,2 =C2 B,2 B,2 A,B,^CD E4- | E2 E2 F4 B,4 D4 | E8 F8 | G4 F4 z4 F4 | FEDC B,8 B,4 | %30
w: ab- bra- ciar ma l'a- * * * *|* ria strin- si, ma|l'a- ria|strin- si, ma|l'a- * * * * ria|
 B,8 B,4 z2 B,2 | E,2 F,2 G,2 A,2 B,4 E,4 | z4 G,4 G,2 A,2 B,2 C2 | D4 G,4 z8 | z2 G4 F2 F3 E D4 | %35
w: strin- si, et|io le brac- cia a- per- si,|et io le brac- cia a-|per- si,|Per Ma- donn' _ _|
 B,2 =C2 B,2 B,2 A,B,^CD E4- | E2 E2 F4 B,4 D4 | E8 F8 | G4 F4 z4 F4 | FEDC B,6 B,2 B,4 | %40
w: ab- bra- ciar ma l'a- * * * *|* ria strin- si, ma|l'a- ria|strin- si, ma|l'a- * * * * ria strin-|
 B,2 G2 D2 E2 F2 E2 z4 |[M:2/2] z8 |] %42
w: si, ma l'a- ria strin- si.||
V:3
 z16 |[K:D][K:treble-8] B4 ^A2 B2 G4 F4 | z16 | z4 z2 G2 G6 G2 | G2 G2 G4 G2 G2 G2 d2 | %5
w: |Co- si di- cen- do||et qual puo|gra- tia ha- ver- si Mag- gior la|
 e2 f2 g4 f4 z4 | z4 e4 =c2 B2 A4 | G4 B4 B6 e2 | ^d4 e4 z4 z2 f2 | e6 B2 B4 B2 B2 | %10
w: man mi por- se,|la man mi por-|se, la man mi|por- se ond'|io ch'ar- de- a, ond'|
 B2 A2 dcBA GFEF GABc | d2 e4 ^d2 e2 A2 A4- | A4 E4 F6 F2 | G8 F4 d4- | d4 c4 B8 | B8 z4 B4 | %16
w: io ch'ar- de- * * * * * * * * * * *|* * * a, La pre-|* si et ver- go-|gno- so a lei|_ mi spin-|si, a|
 ^G6 A2 B4 B4 | z4 G4 d6 d2 | d2 d2 B2 c2 d2 c4 B2- | B2 ^A2 A4 B2 F3 F F2 | E4 F4 z8 | %21
w: lei mi spin- si,|Ma men- tre il|fin- to ben ver mi cre- de-|* * * a, Rup- pe- si il|son- no|
 z4 E4 E2 F2 G2 A2 | B4 E4 z4 G4 | G2 A2 B2 c2 d8 | B2 e4 d2 c4 B2 A2 | G2 A3 GGF/G/ A4 c4- | %26
w: et io le brac- cia a-|per- si, et|io le brac- cia a- per-|si, Per Ma- donn' ab- bra-|ciar, _ _ _ _ _ _ Per|
 c2 c2 d8 B4- | B4 e4 ^d6 d2 | e2 B2 d2 A2 z2 B2 B4 | A2 B3 A G4 FG F4 | E16 | z4 E4 E2 F2 G2 A2 | %32
w: _ Ma- donn' ab-|* bra- ciar ma|l'a- ria strin- si, ma l'a-|ria strin- * * * * *|si,|et io le brac- cia a-|
 B4 E4 z4 G4 | G2 A2 B2 c2 d8 | B2 e4 d2 c4 B2 A2 | G2 A3 GGF/G/ A4 z2 c2- | c2 c2 d8 B4- | %37
w: per- si, et|io le brac- cia a- per-|si, Per Ma- donn' ab- bra-|ciar, _ _ _ _ _ _ Per|_ Ma- donn' ab-|
 B4 e4 ^d6 d2 | e2 B2 d2 A2 z2 B2 B4 | A2 B3 A G4 FG F4 | E2 e2 f2 e2 ^d2 e2 z4 |[M:2/2] z8 |] %42
w: * bra- ciar ma|l'a- ria strin- si, ma l'a-|ria strin- * * * * *|si, ma l'a- ria strin- si.||
V:4
 z16 |[K:D] z16 | G,4 F,2 G,2 E,4 D,4 | z4 G,,4 G,,6 G,,2 | G,,2 G,,2 =C,4 G,,2 G,,2 G,,4 | %5
w: ||Co- si di- cen- do|et qual puo|gra- tia ha- ver- si Mag- gior|
 z4 G,4 A,2 B,2 =C4 | B,4 z4 z8 | z4 z2 G,2 E,2 ^D,2 E,4 | B,,4 z2 E,2 F,2 F,2 B,,4 | %9
w: la man mi por-|se,|la man mi por-|se ond' io ch'ar- de-|
 E,4 z2 E,2 B,,2 B,,2 B,4 | E,2 F,2 B,,4 E,8 | z4 B,,4 A,,8- | A,,4 A,,4 D,4 B,,4 | %13
w: a, ond' io ch'ar- de-|a, La pre- si|et ver-|* go- gno- so a|
 G,,6 A,,2 B,,6 C,2 | D,4 A,,4 E,6 F,2 | G,6 A,2 B,8 | E,8 z4 G,4 | D6 D2 D2 D2 D,4- | %18
w: lei _ _ _|_ mi spin- *||si, Ma|men- tre il fin- to ben|
 D,4 E,4 F,2 F,2 G,4 | F,8 z2 B,,3 B,, B,,2 | =C,4 B,,4 z4 E,4- | E,4 E,2 F,2 G,2 A,2 B,4 | %22
w: _ ver mi cre- de-|a, Rup- pe- si il|son- no et|_ io le brac- cia a- per-|
 E,4 z4 G,4 G,2 A,2 | B,2 C2 D4 G,8 | z2 E,4 B,,2 F,4 G,2 D,2 | E,8 z4 A,4- | A,4 F,4 G,8 | %27
w: si, et io le|brac- cia a- per- si,|Per Ma- donn' ab- bra-|ciar, Per|_ Ma- donn'|
 E,4 =C4 B,6 B,2 | E,2 G,2 D,2 D,2 z4 z2 B,,2 | D,4 E,4 B,,8 | E,8 z4 E,4- | %31
w: ab- bra- ciar ma|l'a- ria strin- si, ma|l'a- ria strin-|si, et|
 E,4 E,2 F,2 G,2 A,2 B,4 | E,4 z4 G,4 G,2 A,2 | B,2 C2 D4 G,8 | z2 E,4 B,,2 F,4 G,2 D,2 | %35
w: _ io le brac- cia a- per-|si, et io le|brac- cia a- per- si,|Per Ma- donn' ab- bra-|
 E,8 z4 A,4- | A,4 F,4 G,8 | E,4 =C4 B,6 B,2 | E,2 G,2 D,2 D,2 z4 z2 B,,2 | D,4 E,4 B,,8 | %40
w: ciar, Per|_ Ma- donn'|ab- bra- ciar ma|l'a- ria strin- si, ma|l'a- ria strin-|
 E,2 E,2 B,2 =C2 B,2 E,2 z4 |[M:2/2] z8 |] %42
w: si, ma l'a- ria strin- si.||

